packages/core/src/svgs/statom.svg

<svg width="24" height="24" viewBox="0 0 24 24" fill="none" xmlns="http://www.w3.org/2000/svg">
<g clip-path="url(#clip0_31_19349)">
<path d="M0 0H24V24H0V0Z" fill="#E91179"/>
<path d="M16.89 8.70021L14.4814 9.53592C14.3357 9.58307 14.1814 9.50592 14.1214 9.36021C13.9524 8.89339 13.648 8.48752 13.2473 8.1944C12.8465 7.90129 12.3676 7.73421 11.8714 7.7145C10.8514 7.7145 9.95573 8.28021 9.95573 9.0045C9.95573 10.1231 12.1114 10.5559 13.1914 10.6331C16.8172 11.1431 17.6186 13.3931 17.5672 14.4516C17.6657 15.9216 16.7743 18.8574 12.3857 18.8574C8.22858 18.8574 6.72858 16.3116 6.43715 14.8374C6.4252 14.7717 6.43841 14.7039 6.47414 14.6475C6.50988 14.5912 6.56552 14.5503 6.63001 14.5331L9.0643 13.8645C9.21858 13.8216 9.37715 13.9288 9.41573 14.0916C9.8443 15.9516 11.5629 16.2859 12.3857 16.2859C13.0929 16.2859 14.5072 15.9431 14.5072 14.8074C14.5072 13.3759 12.0257 13.3588 9.7843 12.6859C7.54715 12.0131 6.89144 10.5002 6.89144 9.22735C6.89144 7.95878 7.35001 5.14307 11.8757 5.14307C15.2614 5.14307 16.6929 7.16592 17.0614 8.3745C17.1043 8.51164 17.0272 8.65307 16.8943 8.70021H16.89Z" fill="white"/>
</g>
<defs>
<clipPath id="clip0_31_19349">
<rect width="24" height="24" fill="white"/>
</clipPath>
</defs>
</svg>

<svg xmlns="http://www.w3.org/2000/svg" width="24" height="24" fill="none" viewBox="0 0 24 24"><g clip-path="url(#a)"><path fill="#E91179" d="M0 0h24v24H0z"/><path fill="#fff" d="m16.89 8.7-2.409.836a.293.293 0 0 1-.36-.176 2.5 2.5 0 0 0-2.25-1.645c-1.02 0-1.915.565-1.915 1.29 0 1.118 2.155 1.55 3.235 1.628 3.626.51 4.428 2.76 4.376 3.819.099 1.47-.793 4.405-5.181 4.405-4.157 0-5.657-2.545-5.949-4.02a.266.266 0 0 1 .193-.304l2.434-.668c.155-.043.313.064.352.227.428 1.86 2.147 2.194 2.97 2.194.707 0 2.121-.343 2.121-1.479 0-1.431-2.481-1.448-4.723-2.121-2.237-.673-2.893-2.186-2.893-3.459 0-1.268.459-4.084 4.985-4.084 3.385 0 4.817 2.023 5.185 3.231a.263.263 0 0 1-.167.326z"/></g><defs><clipPath id="a"><path fill="#fff" d="M0 0h24v24H0z"/></clipPath></defs></svg>
